web/i.svg

<?xml version="1.0" standalone="no"?><!DOCTYPE svg PUBLIC "-//W3C//DTD SVG 1.1//EN" "http://www.w3.org/Graphics/SVG/1.1/DTD/svg11.dtd"><svg t="1729202414354" class="icon" viewBox="0 0 1024 1024" version="1.1" xmlns="http://www.w3.org/2000/svg" p-id="2478" xmlns:xlink="http://www.w3.org/1999/xlink" width="200" height="200"><path d="M512 170.666667C324.266667 170.666667 170.666667 324.266667 170.666667 512s153.6 341.333333 341.333333 341.333333 341.333333-153.6 341.333333-341.333333S699.733333 170.666667 512 170.666667z m0 640c-164.266667 0-298.666667-134.4-298.666667-298.666667s134.4-298.666667 298.666667-298.666667 298.666667 134.4 298.666667 298.666667-134.4 298.666667-298.666667 298.666667z" fill="#3D3D3D" p-id="2479"></path><path d="M512 448c-12.8 0-21.333333 8.533333-21.333333 21.333333v213.333334c0 10.666667 8.533333 21.333333 21.333333 21.333333s21.333333-8.533333 21.333333-21.333333V469.333333c0-10.666667-8.533333-21.333333-21.333333-21.333333zM512 320c-12.8 0-21.333333 10.666667-21.333333 21.333333v42.666667c0 12.8 8.533333 21.333333 21.333333 21.333333s21.333333-10.666667 21.333333-21.333333v-42.666667c0-12.8-8.533333-21.333333-21.333333-21.333333z" fill="#3D3D3D" p-id="2480"></path></svg>

<svg xmlns="http://www.w3.org/2000/svg" width="200" height="200" class="icon" viewBox="0 0 1024 1024"><path fill="#3D3D3D" d="M512 170.667c-187.733 0-341.333 153.6-341.333 341.333S324.267 853.333 512 853.333 853.333 699.733 853.333 512 699.733 170.667 512 170.667m0 640c-164.267 0-298.667-134.4-298.667-298.667S347.733 213.333 512 213.333 810.667 347.733 810.667 512 676.267 810.667 512 810.667"/><path fill="#3D3D3D" d="M512 448c-12.8 0-21.333 8.533-21.333 21.333v213.334C490.667 693.333 499.2 704 512 704s21.333-8.533 21.333-21.333V469.333C533.333 458.667 524.8 448 512 448m0-128c-12.8 0-21.333 10.667-21.333 21.333V384c0 12.8 8.533 21.333 21.333 21.333s21.333-10.666 21.333-21.333v-42.667c0-12.8-8.533-21.333-21.333-21.333"/></svg>
